styles/1/Numix/22/places/default-folder-art.svg

<?xml version="1.0" encoding="UTF-8" standalone="no"?>
<!-- Created with Inkscape (http://www.inkscape.org/) -->

<svg
   xmlns:dc="http://purl.org/dc/elements/1.1/"
   xmlns:cc="http://creativecommons.org/ns#"
   xmlns:rdf="http://www.w3.org/1999/02/22-rdf-syntax-ns#"
   xmlns:svg="http://www.w3.org/2000/svg"
   xmlns="http://www.w3.org/2000/svg"
   xmlns:sodipodi="http://sodipodi.sourceforge.net/DTD/sodipodi-0.dtd"
   xmlns:inkscape="http://www.inkscape.org/namespaces/inkscape"
   width="22"
   height="22"
   id="svg2"
   version="1.1"
   inkscape:version="0.91 r"
   sodipodi:docname="default-folder-art.svg"
   inkscape:export-filename="/media/Data/Main/Visuals/Icons/Numix/Desktop/repos/numix-wiki/Gjorgi/Numix-folders/48/New/folder-144.png"
   inkscape:export-xdpi="270"
   inkscape:export-ydpi="270">
  <defs
     id="defs4" />
  <sodipodi:namedview
     id="base"
     pagecolor="#ffffff"
     bordercolor="#666666"
     borderopacity="1.0"
     inkscape:pageopacity="0.0"
     inkscape:pageshadow="2"
     inkscape:zoom="22.603171"
     inkscape:cx="11.724161"
     inkscape:cy="11.619008"
     inkscape:document-units="px"
     inkscape:current-layer="layer1"
     showgrid="true"
     inkscape:window-width="1280"
     inkscape:window-height="998"
     inkscape:window-x="0"
     inkscape:window-y="0"
     inkscape:window-maximized="1"
     showguides="true"
     inkscape:guide-bbox="true">
    <inkscape:grid
       type="xygrid"
       id="grid2985"
       empspacing="5"
       visible="true"
       enabled="true"
       snapvisiblegridlinesonly="true" />
  </sodipodi:namedview>
  <metadata
     id="metadata7">
    <rdf:RDF>
      <cc:Work
         rdf:about="">
        <dc:format>image/svg+xml</dc:format>
        <dc:type
           rdf:resource="http://purl.org/dc/dcmitype/StillImage" />
        <dc:title />
      </cc:Work>
    </rdf:RDF>
  </metadata>
  <g
     inkscape:label="Layer 1"
     inkscape:groupmode="layer"
     id="layer1"
     transform="translate(0,-1030.3622)">
    <path
       style="font-size:medium;font-style:normal;font-variant:normal;font-weight:normal;font-stretch:normal;text-indent:0;text-align:start;text-decoration:none;line-height:normal;letter-spacing:normal;word-spacing:normal;text-transform:none;direction:ltr;block-progression:tb;writing-mode:lr-tb;text-anchor:start;baseline-shift:baseline;color:#000000;fill:#c4905e;fill-opacity:1;fill-rule:nonzero;stroke:none;stroke-width:1.52408636;marker:none;visibility:visible;display:inline;overflow:visible;enable-background:accumulate;font-family:Sans;-inkscape-font-specification:Sans"
       d="M 1.625 3 C 1.2775698 3.063 0.99985296 3.3968 1 3.75 L 1 18.25 C 1.00617 18.641 1.3590206 18.9938 1.75 19 L 20.25 19 C 20.640979 18.99 20.99383 18.641 21 18.25 L 21 5.8125 C 20.9938 5.4215 20.640979 5.0062 20.25 5 L 13 5 L 13 3.75 C 12.9938 3.359 12.640979 3.0062 12.25 3 L 1.625 3 z M 10.375 8 C 14.125 8 16 10.2858 16 12 C 16 13.1428 15.375 16 11 16 C 9.7499999 16 9.125 15.42405 9.125 14.28125 C 9.125 13.13825 8.5000001 13.15625 7.875 13.15625 C 7.25 13.15625 6 13.1518 6 11.4375 C 6 9.7233 7.8788356 8.056 10.375 8 z M 9.5 9 C 9.2238576 9 9 9.2239 9 9.5 C 9 9.7761 9.2238576 10 9.5 10 C 9.7761424 10 10 9.7761 10 9.5 C 10 9.2239 9.7761424 9 9.5 9 z M 11.5 9 C 11.223858 9 11 9.2239 11 9.5 C 11 9.7761 11.223858 10 11.5 10 C 11.776142 10 12 9.7761 12 9.5 C 12 9.2239 11.776142 9 11.5 9 z M 7.5 10 C 7.2238576 10 7 10.2239 7 10.5 C 7 10.7761 7.2238576 11 7.5 11 C 7.7761424 11 8 10.7761 8 10.5 C 8 10.2239 7.7761424 10 7.5 10 z M 13.5 10 C 13.223858 10 13 10.2239 13 10.5 C 13 10.7761 13.223858 11 13.5 11 C 13.776142 11 14 10.7761 14 10.5 C 14 10.2239 13.776142 10 13.5 10 z M 11 13 C 10.447715 13 10 13.4477 10 14 C 10 14.5523 10.447715 15 11 15 C 11.552285 15 12 14.5523 12 14 C 12 13.4477 11.552285 13 11 13 z "
       transform="translate(0,1030.3622)"
       id="path3912" />
  </g>
</svg>

<!-- Created with Inkscape (http://www.inkscape.org/) -->
<svg xmlns="http://www.w3.org/2000/svg" viewBox="0 0 22 22">
 <g transform="translate(0,-1030.3622)">
  <path d="m 1.625 3 c -0.347 0.063 -0.625 0.397 -0.625 0.75 l 0 14.5 c 0.006 0.391 0.359 0.744 0.75 0.75 l 18.5 0 c 0.391 -0.01 0.744 -0.359 0.75 -0.75 l 0 -12.438 c -0.006 -0.391 -0.359 -0.806 -0.75 -0.813 l -7.25 0 l 0 -1.25 c -0.006 -0.391 -0.359 -0.744 -0.75 -0.75 l -10.625 0 z m 8.75 5 c 3.75 0 5.625 2.286 5.625 4 c 0 1.143 -0.625 4 -5 4 c -1.25 0 -1.875 -0.576 -1.875 -1.719 c 0 -1.143 -0.625 -1.125 -1.25 -1.125 c -0.625 0 -1.875 -0.004 -1.875 -1.719 c 0 -1.714 1.879 -3.382 4.375 -3.438 z m -0.875 1 c -0.276 0 -0.5 0.224 -0.5 0.5 c 0 0.276 0.224 0.5 0.5 0.5 c 0.276 0 0.5 -0.224 0.5 -0.5 c 0 -0.276 -0.224 -0.5 -0.5 -0.5 z m 2 0 c -0.276 0 -0.5 0.224 -0.5 0.5 c 0 0.276 0.224 0.5 0.5 0.5 c 0.276 0 0.5 -0.224 0.5 -0.5 c 0 -0.276 -0.224 -0.5 -0.5 -0.5 z m -4 1 c -0.276 0 -0.5 0.224 -0.5 0.5 c 0 0.276 0.224 0.5 0.5 0.5 c 0.276 0 0.5 -0.224 0.5 -0.5 c 0 -0.276 -0.224 -0.5 -0.5 -0.5 z m 6 0 c -0.276 0 -0.5 0.224 -0.5 0.5 c 0 0.276 0.224 0.5 0.5 0.5 c 0.276 0 0.5 -0.224 0.5 -0.5 c 0 -0.276 -0.224 -0.5 -0.5 -0.5 z m -2.5 3 c -0.552 0 -1 0.448 -1 1 c 0 0.552 0.448 1 1 1 c 0.552 0 1 -0.448 1 -1 c 0 -0.552 -0.448 -1 -1 -1 z" transform="translate(0,1030.3622)" style="visibility:visible;fill:#c4905e;fill-opacity:1;stroke:none;display:inline;color:#000;fill-rule:nonzero"/>
 </g>
</svg>
